src/core/icon/svg/success-line.svg

<svg width="24px" height="24px"><path d="M12,22 C6.47699998,22 1.99999996,17.523 1.99999996,12 C1.99999996,6.47699998 6.47699998,1.99999996 12,1.99999996 C17.523,1.99999996 22,6.47699998 22,12 C22,17.523 17.523,22 12,22 Z M12,20 C16.418278,20 20,16.418278 20,12 C20,7.58172198 16.418278,3.99999997 12,3.99999997 C7.58172198,3.99999997 3.99999997,7.58172198 3.99999997,12 C3.99999997,16.418278 7.58172198,20 12,20 Z M11.003,16 L6.75999998,11.757 L8.17399998,10.343 L11.003,13.172 L16.659,7.51499998 L18.074,8.92899999 L11.003,16 Z" fill="#000091"></path></svg>

<svg xmlns="http://www.w3.org/2000/svg" width="24" height="24" viewBox="0 0 24 24"><path d="M12 22C6.477 22 2 17.523 2 12S6.477 2 12 2s10 4.477 10 10-4.477 10-10 10Zm0-2a8 8 0 1 0 0-16 8 8 0 0 0 0 16Zm-.997-4L6.76 11.757l1.414-1.414 2.829 2.829 5.656-5.657 1.415 1.414L11.003 16Z"/></svg>
